!!!SOCIAL_FUNCTION:	songs of the buffalo society (dream societies)
!!!PDT:	1918

Specific Region: Dakotas, Minnesota, Montana, Nebraska
!!!REG: Dakotas and Montana
!!!LING_GROUP: Siouan
!!!LANG: Tone
!!!OTL@ENG: In the North
!!!ONM: No. 97
**kern
*Imale
*clefF4
*k[b-e-a-d-g-]
*M2/4
*>[A,A]
*>norep[A]
*>A
=1!|:
*MM132
4B-
4B-
=2
4f
8.f
16g-
=3||
*M3/4
2.f
=4
4f
2d-
=5
4e-
4e-
4e-
=6
4d-
[2B-
=7
2.B-]
=8
4B-
2G-
=9||
*M2/4
4G-
4G-
=10
4B-
8.B-
16c
=11
[2B-
=12
4B-_
8.B-]
16c
=13
[2B-
=14
4B-]
4B-
=15||
*M3/4
4f
4f
8f
8B-
=16||
*M2/4
8.f
16f
4f
=17||
*M3/4
(12f
12d-)
12d-
4d-
8f
8f
=18
8.e-
16e-
4e-
8.e-
16e-
=19
(12e-
12d-)
12d-
4d-
4d-
=20||
*M2/4
[2B-
=21
4B-]
4B-
=22||
*M3/4
2.G-
=23||
*M2/4
4G-
4G-
=24
4B-
8.B-
16c
=25
[2B-
=26
2B-]
=27||
*M3/4
4B-
4B-
4G-
=28||
*M2/4
4.B-
8c
=29
4B-
4r
==:|!
*-
!!!CNT: Native American -- Sioux
!!!MRD: 1911/07//-1914///
!!!OCL: Frances Densmore
!!!YOR1: Teton Sioux Music, Bulletin 61,
!!!YOR2: Bureau of American Ethnology, Smithsonian Institution
!!!PPR: Government Printing Office
!!!PPP: Washington, D.C.
!!!PDT: 1918///
!!!ENC: Craig Stuart Sapp
!!!END: 2002/03/25/
!!!EEV: 2002/03/31/
!!!AGN: Society Song/Song of the Buffalo Society
!!!MPN@@SIO: Malipi'ya-to
!!!MPN@ENG: Blue Cloud
!!!TXO: Santee Sioux
!!!MLC: Sisseton, South Dakota, United States of America
!!!ARL: 45.6/-97.1:
!!!catalog: Catalogue No. 660
!!!PPG: 288
!!!EFL: 97/245
!!!VTS: 1607784251
